!!!!SEGMENT: d-b--slg-bohn-ms-mus-111--017_jarzebski-adam--canzoni-e-concerti-17-berlinesa.krn
!!!cenid: 16xx:1790
!!!COM: Jarzębski, Adam
!!!COM-rismID: pe30017782
!!!CDT:
!!!CNT:
!!!GTL: Canzoni e Concerti
!!!OTL: 17. Berlinesa
!!!OMV: 017
!!!PDT: 1627
!!!AGN:
!!!SMS-siglum: D-B
!!!SMS-shelfmark: Slg Bohn Ms.mus. 111
!!!SMS-shelfwork: 002-017 G
!!!SMS-variant:
!!!SMS-altvar:
!!!NIFC-rismSourceID: 1001062014
!!!NIFC-rismChildID: 1001062014
!!!NIFC-islandoraID: none
!!!URL-pdf-islandora:
!!!URL-scan: https://digital.staatsbibliothek-berlin.de/werkansicht/?PPN=PPN1049147219 @EN{Scan on Staatsbibliothek zu Berlin Website} @PL{Skany w portalu Staatsbibliothek zu Berlin}
!!!ONB-nifc: UWAGA: Prima vox: s. 29-30, Seconda vox: s. 89-90, Bassus sive Vox Tertia: s. 128, Basso continuo: s. 176. Uwaga: proszę wpisywać partie tylko występujące w danym koncercie i nazywać partie wg określeń podawanych przy danym utworze. Kody instr. dla humdrumowców podane zostaną na forum.
!!!AIN: 2 soprn 1 vox
!!!key: a
!!!filter-modern: sic -sq | shed -e "s/TX(.*):t=P:/tx$1:t=P:/LG" | shed -k -e "s/[<>]//g" | shed -e "s/^(\d+[\/\\]right)/$1yy/I;s/^(\d+[\/\\]left)/$1yy/I" | shed -k -e "s/#X/#/g" | shed -k -e "s/-X/-/g" | shed -k -e "s/n//g" | shed -k -e "s/LO:N:acc/LO:n:acc:/L" | shed -e "s/^custos:/Xcustos:/I" | shed -k -e "s/LO:N:vis/LO:n:vis:/L" | shed -e "s/:rj/:RJ/L" | shed -e "s/LO:DY:(a|b|rj)/LO:dy:$1/L" | shed -e "s/-//B" | modori -m | tie -s | autostem -r
**kern	**kern	**kern	**kern
*part4	*part3	*part2	*part1
*staff4	*staff3	*staff2	*staff1
*I"Baſso Continúo.	*I"Tertia Vox	*I"Canto.	*I"Canto.
*mI"Basso continuo	*mI"Terzo voce	*mI"Soprano II	*mI"Soprano I
*I'bc	*I'V 3	*I'S	*I'S
*	*ICvox	*ICvox	*ICvox
*	*Ivox	*Isoprn	*Isoprn
*IGcont	*	*	*
*clefC4	*clefC4	*clefG2	*clefG2
*mclefF4	*mclefGv2	*	*
*k[]	*k[]	*k[]	*k[]
*a:	*a:	*a:	*a:
*M2/2	*M2/2	*M2/2	*M2/2
*met(C|)	*met(C|)	*met(C|)	*met(C|)
*mmet(c|)	*mmet(c|)	*mmet(c|)	*mmet(c|)
=1-	=1-	=1-	=1-
!!LO:TX:t=P:problem:all\right or middle	!	!	!
2.A/	2.A/	2.c/	2.a/
4A/	4A/	4c/	4a/
=2-	=2-	=2-	=2-
2.A/	2A/	2c/	2a/
.	4r	4r	4r
!LO:TX:t=P:problem:kreska pseudotaktowa	!	!LO:TX:t=P:problem:kreska pseudotaktowa	!LO:TX:t=P:problem:kreska pseudotaktowa
4c\	4c\	4cc\	4ee\
=3-	=3-	=3-	=3-
*	*	*	*2\right
2G/	2G/	2b/	2dd\
2A/	2A/	4.a/	4.cc\
.	.	16b/LL	16dd\LL
.	.	16cc/JJ	16ee\JJ
=4-	=4-	=4-	=4-
!LO:TX:t=P:problem:kreska pseudotaktowa	!	!LO:TX:t=P:problem:kreska pseudotaktowa	!
1E	1E	1g#X	1b
!LO:MO:mod=*null:null	!	!	!
*clefF4	*	*	*
=5-	=5-	=5-	=5-
4r	4r	4r	4r
*	*2\right	*2\right	*
2C/	2c\	2cc\	2ee\
!	!	!	!LO:TX:t=P:problem:kreska pseudotaktowa
4C/	4c\	4cc\	4ee\
=6-	=6-	=6-	=6-
2GG/	2G/	2b/	2dd\
!LO:TX:t=P:problem:kreska pseudotaktowa	!	!	!
2AA/	2A/	8r	8r
.	.	8cc/L	8ee\L
.	.	8b/	8dd\
.	.	8a/J	8cc\J
=7-	=7-	=7-	=7-
4E\	4r	4g#X/	4b/
4AA/	4A/	2a/	4cc\
*2\right	*	*	*
2E\	2e\	.	2b/
.	.	4g#X/	.
=8-	=8-	=8-	=8-
!LO:TX:t=P:problem:kreska pseudotaktowa	!LO:TX:t=P:problem:kreska pseudotaktowa	!	!
1AA	1A	1a	1a
=9-	=9-	=9-	=9-
4AA/	4r	00r	00r
2C/	2e\	.	.
4C/	8c\L	.	.
.	8e\J	.	.
=10-	=10-	=10-	=10-
2GG/	4d\	.	.
.	8B\L	.	.
.	8d\J	.	.
!LO:TX:t=P:problem:kreska pseudotaktowa	!	!	!
2AA/	4c\	.	.
.	8A\L	.	.
.	8c\J	.	.
*custos:E	*custos:B	*	*
!LO:LB:g=original	!LO:LB:g=original	!	!
=11-	=11-	=11-	=11-
4E\	4B\	.	.
4AA/	4c\	.	.
2E\	2B\	.	.
=12-	=12-	=12-	=12-
!LO:TX:t=P:problem:kreska pseudotaktowa	!	!	!
1AA	1A	.	.
*	*	*	*custos:cc
!	!	!	!LO:LB:g=original
=13-	=13-	=13-	=13-
4AA/	00r	4r	4r
2C/	.	2ee\	2cc\
4C/	.	8cc\L	8a\L
!	!	!	!LO:TX:t=P:problem:kreska pseudotaktowa
.	.	8ee\J	8cc\J
*	*	*custos:dd	*
!	!	!LO:LB:g=original	!
=14-	=14-	=14-	=14-
2GG/	.	4dd\	4b/
.	.	8b\L	8g/L
.	.	8dd\J	8b/J
!LO:TX:t=P:problem:kreska pseudotaktowa	!	!	!
2AA/	.	4cc\	4a/
.	.	8a/L	8e/L
!	!	!LO:TX:t=P:problem:kreska pseudotaktowa	!LO:TX:t=P:problem:kreska pseudotaktowa
.	.	8cc/J	8a/J
=15-	=15-	=15-	=15-
4E\	.	4b/	4g#X/
4AA/	.	4cc\	2a/
2E\	.	2b/	.
.	.	.	4g#X/
=16-	=16-	=16-	=16-
!LO:TX:t=P:problem:kreska pseudotaktowa	!	!LO:TX:t=P:problem:kreska pseudotaktowa	!LO:TX:t=P:problem:kreska pseudotaktowa
1AA	.	1a	1a
=17-	=17-	=17-	=17-
4AA/	4r	4r	4r
2C/	2c\	2cc\	2ee\
4C/	4c\	8a/L	8cc\L
!	!	!LO:TX:t=P:problem:kreska pseudotaktowa	!LO:TX:t=P:problem:kreska pseudotaktowa
.	.	8cc/J	8ee\J
=18-	=18-	=18-	=18-
2GG/	2G/	4b/	4dd\
.	.	8gny/L	8b\L
.	.	8b/J	8dd\J
!LO:TX:t=P:problem:kreska pseudotaktowa	!	!	!
2AA/	2A/	4a/	4cc\
.	.	8f/L	8a\L
!	!	!LO:TX:t=P:problem:kreska pseudotaktowa	!
.	.	8a/J	8cc\J
*	*	*	*custos:b
!	!	!	!LO:LB:g=original
=19-	=19-	=19-	=19-
4E\	4r	4g#X/	4b/
4AA/	4A/	2a/	4cc\
2E\	2e\	.	2b/
.	.	4g#X/	.
=20-	=20-	=20-	=20-
0AA	0A	1a	1cc#X
=21-	=21-	=21-	=21-
.	.	1r	4r
.	.	.	4a/
.	.	.	4a/
.	.	.	4a/
=22-	=22-	=22-	=22-
!LO:TX:t=P:problem:kreska pseudotaktowa	!	!	!
1AA	1r	4r	1ee
.	.	4e/	.
*	*	*custos:e	*
!	!	!LO:LB:g=original	!
.	.	4e/	.
.	.	4e/	.
=23-	=23-	=23-	=23-
2A\	4r	1a	1r
.	4A/	.	.
4A\	4A/	.	.
4A\	4A/	.	.
*custos:A	*	*	*
!LO:LB:g=original	!	!	!
=24-	=24-	=24-	=24-
!	!LO:TX:t=P:problem:kreska pseudotaktowa	!	!
0A	1A	0r	4r
.	.	.	16a/LL
.	.	.	16b/
!	!	!	!LO:TX:t=P:problem: # below
.	.	.	16cc#X/
.	.	.	16dd/JJ
.	.	.	8ee\L
!	!	!	!LO:TX:a:t=P:problem:# above
.	.	.	8cc#X\J
!	!	!	!LO:TX:t=P:problem:mixed beam
.	.	.	8a/L
!	!	!	!LO:TX:t=P:problem:kreska pseudotaktowa
.	.	.	8aa\J
=25-	=25-	=25-	=25-
!LO:TX:t=P:problem:kreska pseudotaktowa	!	!	!
.	4r	.	1ee
.	16A\LL	.	.
.	16B\	.	.
!	!LO:SIC:v:s=16c#	!	!
.	16c\	.	.
.	16d\JJ	.	.
.	8e\L	.	.
!	!LO:SIC:v:s=8c#J	!	!
.	8c\J	.	.
!	!LO:TX:t=P:problem:mixed beam	!	!
.	8A/L	.	.
.	8a\J	.	.
=26-	=26-	=26-	=26-
0E	1e	4r	1r
.	.	16e/LL	.
!	!	!LO:TX:a:t=P:problem:# above	!
.	.	16f#X/	.
!	!	!LO:TX:a:t=P:problem:# above	!
.	.	16g#X/	.
.	.	16a/JJ	.
.	.	8b/L	.
.	.	8g#X/J	.
!	!	!LO:TX:t=P:problem:mixed beam	!
.	.	8e/L	.
.	.	8ee\J	.
*	*custos:E	*	*
!	!LO:LB:g=original	!	!
=27-	=27-	=27-	=27-
.	1E	2b/	4r
.	.	.	16e/LL
!	!	!	!LO:TX:a:t=P:problem:# above
.	.	.	16f#X/
!	!	!	!LO:TX:t=P:problem: # below
.	.	.	16g#X/
.	.	.	16a/JJ
!	!	!LO:TX:t=P:problem:kreska pseudotaktowa	!
.	.	2r	8b/L
!	!	!	!LO:TX:t=P:problem: # below
!	!	!	!LO:SIC:s=8g#J
.	.	.	8g#X/
!	!	!	!LO:SIC:v:s=8eL
.	.	.	8e#y/
.	.	.	8b/J
=28-	=28-	=28-	=28-
!	!	!	!LO:TX:t=P:problem:kreska pseudotaktowa
0A	0A	4r	1cc#X
.	.	16a/LL	.
.	.	16b/	.
!	!	!LO:TX:a:t=P:problem:# above	!
.	.	16cc#X/	.
.	.	16dd/JJ	.
.	.	8ee\L	.
.	.	8cc#X\J	.
!	!	!LO:TX:t=P:problem:mixed beam	!
.	.	8a/L	.
.	.	8aa\J	.
=29-	=29-	=29-	=29-
.	.	2ee\	4r
.	.	.	16a/LL
.	.	.	16b/
!	!	!	!LO:TX:t=P:problem: # below
.	.	.	16cc#X/
.	.	.	16dd/JJ
*	*	*	*custos:ee
!	!	!	!LO:LB:g=original
.	.	2r	8ee\L
!	!	!	!LO:TX:a:t=P:problem:# above
.	.	.	8cc#X\J
!	!	!	!LO:TX:t=P:problem:mixed beam
.	.	.	8a/L
!	!	!	!LO:TX:t=P:problem:kreska pseudotaktowa
.	.	.	8aa\J
=30-	=30-	=30-	=30-
!LO:TX:t=P:problem:kreska pseudotaktowa	!	!	!
1A	4r	1r	1ee
.	16A\LL	.	.
.	16B\	.	.
!	!LO:SIC:v:s=16c#	!	!
.	16c\	.	.
.	16d\JJ	.	.
.	8e\L	.	.
!	!LO:SIC:v:s=8c#J	!	!
.	8c\J	.	.
!	!LO:TX:t=P:problem:mixed beam	!	!
.	8A/L	.	.
.	8a\J	.	.
=31-	=31-	=31-	=31-
0E	1e	4r	1r
.	.	16e/LL	.
!	!	!LO:TX:a:t=P:problem:# above	!
.	.	16f#X/	.
!	!	!LO:TX:t=P:problem: # below	!
.	.	16g#X/	.
.	.	16a/JJ	.
!	!	!LO:TX:t=P:problem:mixed beam	!
.	.	8b/L	.
!	!	!LO:TX:a:t=P:problem:# above	!
!	!	!LO:SIC:s=8g#J	!
.	.	8g#X/	.
!	!	!LO:SIC:s=8eL	!
.	.	8e/	.
!	!	!LO:TX:t=P:problem:kreska pseudotaktowa	!
.	.	8ee\J	.
*	*	*custos:b	*
!	!	!LO:LB:g=original	!
=32-	=32-	=32-	=32-
.	1E	4b/	4r
.	.	16g#X/LL	16eny/LL
!	!	!	!LO:TX:a:t=P:problem:# above
.	.	16a/	16f#X/
!	!	!	!LO:TX:t=P:problem: # below
.	.	16b/	16g#X/
.	.	16ccny/JJ	16a/JJ
.	.	8dd\L	8b/L
!	!	!	!LO:TX:t=P:problem: # below
!	!	!	!LO:SIC:s=8g#J
.	.	8b\J	8g#X/
!	!	!	!LO:SIC:s=8eL
.	.	8g#X/L	8e/
!	!	!	!LO:TX:t=P:problem: # below
.	.	8b/J	8g#X/J
=33-	=33-	=33-	=33-
!	!	!	!LO:TX:t=P:problem:kreska pseudotaktowa
1AA	1A	1cc#X	1a
=34-	=34-	=34-	=34-
2r	2r	2r	2r
!LO:TX:t=P:problem:kreska pseudotaktowa	!	!	!
2A\	2A/	2cc#\	2ee\
=35-	=35-	=35-	=35-
2G#X\	2G#X/	2b/	2ee\
2A\	2A/	2cc#X\	2ee\
=36-	=36-	=36-	=36-
0D	0D	4dd\	4ff\
.	.	4ee\	4gg\
!	!	!	!LO:TX:t=P:problem:kreska pseudotaktowa
.	.	[2ff\	[2aa\
=37-	=37-	=37-	=37-
.	.	8ff\L]	8aa\L]
.	.	16gg\L	16bb-X\L
.	.	16ff\JJ	16aa\JJ
.	.	8ee\L	8gg\L
.	.	16ff\L	16aa\L
.	.	16ee\JJ	16gg\JJ
*	*	*	*custos:ff
!	!	!	!LO:LB:g=original
.	.	8dd\L	8ff\L
.	.	16ee\L	16gg\L
.	.	16dd\JJ	16ff\JJ
.	.	8cc#X\L	8ee\L
.	.	16dd\L	16ff\L
!	!	!LO:TX:t=P:problem:kreska pseudotaktowa	!
!	!	!	!LO:TX:t=P:problem:kreska pseudotaktowa
.	.	16cc#\JJ	16ee\JJ
*	*	*custos:dd	*
!	!	!LO:LB:g=original	!
=38-	=38-	=38-	=38-
!LO:TX:t=P:problem:kreska pseudotaktowa	!	!	!
1D	1D	4.dd\	4.ff\
!	!	!LO:TX:a:t=P:problem:# above	!
.	.	8cc#X\	8ee\
.	.	8dd\L	8ff\L
!	!	!LO:TX:a:t=P:problem:# above	!
.	.	8cc#X\	8ee\
.	.	8dd\	8ff\
.	.	8ee\J	8gg\J
=39-	=39-	=39-	=39-
!	!	!LO:TX:t=P:problem:kreska pseudotaktowa	!
1AA	1A	1cc#X	1ee
=40-	=40-	=40-	=40-
4AA/	4r	4r	4r
4A\	4A/	8a/L	8cc#X\L
.	.	8b/J	8dd\J
4A\	4A/	4cc#X\	4ee\
!LO:TX:t=P:problem:kreska pseudotaktowa	!	!	!
4D/	4D/	4dd\	4ff\
=41-	=41-	=41-	=41-
2.AA/	2A/	2cc#X\	2ee\
.	4r	4r	4r
4A\	4A/	8a/L	8cc#X\L
!	!	!LO:TX:t=P:problem:kreska pseudotaktowa	!
.	.	8b/J	8dd\J
*	*custos:A	*	*
!	!LO:LB:g=original	!	!
=42-	=42-	=42-	=42-
4A\	4A/	4cc#X\	4ee\
4D/	4D/	2dd\	4ff\
!LO:TX:t=P:problem:kreska pseudotaktowa	!	!	!
2A\	2A/	.	2ee\
!	!	!LO:TX:a:t=P:problem:# above	!
.	.	4cc#X\	.
*custos:D	*	*	*
!LO:LB:g=original	!	!	!
=43-	=43-	=43-	=43-
2D/	2D/	2dd\	2dd\
2AA/	2r	2e/	2cc#X\
=44-	=44-	=44-	=44-
!LO:TX:t=P:problem:kreska pseudotaktowa	!	!	!
1D	4r	1f#X	1dd
.	4d\	.	.
.	4d\	.	.
.	4d\	.	.
*	*	*	*custos:dd
!	!	!	!LO:LB:g=original
=45-	=45-	=45-	=45-
2D/	1d	2r	4r
.	.	.	4dd\
4D/	.	4r	4dd\
4D/	.	4d/	4dd\
*	*	*custos:d	*
!	!	!LO:LB:g=original	!
=46-	=46-	=46-	=46-
2.D/	2r	4d/	2dd\
.	.	4d/	.
.	4r	4d/	4r
!LO:TX:t=P:problem:kreska pseudotaktowa	!	!	!
4F\	4f\	4ff\	4aa\
=47-	=47-	=47-	=47-
2C/	2c\	2ee\	2gg\
2D/	2d\	4.dd\	4.ff\
.	.	16ee\LL	16gg\LL
!	!	!	!LO:TX:t=P:problem:kreska pseudotaktowa
.	.	16ff\JJ	16aa\JJ
=48-	=48-	=48-	=48-
!LO:TX:t=P:problem:kreska pseudotaktowa	!	!	!
1AA	1A	1cc#X	1ee
=49-	=49-	=49-	=49-
4AA/	4r	4r	4r
2F\	2f\	2ff\	2aa\
!	!	!LO:TX:t=P:problem:kreska pseudotaktowa	!
4F\	4f\	4ff\	4aa\
=50-	=50-	=50-	=50-
2C/	2c\	2ee\	2gg\
!LO:TX:t=P:problem:kreska pseudotaktowa	!	!	!
2D/	2d\	8r	8r
.	.	8ff\L	8aa\L
.	.	8ee\	8gg\
.	.	8dd\J	8ff\J
=51-	=51-	=51-	=51-
4A\	4r	4cc#X\	4ee\
4D/	4D/	2dd\	4ff\
2A\	2A/	.	2ee\
.	.	4cc#X\	.
=52-	=52-	=52-	=52-
!LO:TX:t=P:problem:kreska pseudotaktowa	!	!	!
1D	1D	1dd	1dd
=53-	=53-	=53-	=53-
!	!	!LO:TX:b:t=4.:mod=	!
4D/	4r	00r	00r
2F\	2a\	.	.
4F\	8f\L	.	.
.	8a\J	.	.
*	*custos:g	*	*
!	!LO:LB:g=original	!	!
=54-	=54-	=54-	=54-
2C/	4g\	.	.
.	8e\L	.	.
.	8g\J	.	.
!LO:TX:t=P:problem:kreska pseudotaktowa	!	!	!
2D/	4f\	.	.
.	8d\L	.	.
.	8f\J	.	.
*custos:A	*	*	*
!LO:LB:g=original	!	!	!
=55-	=55-	=55-	=55-
!	!	!	!LO:TX:b:t=Verte:mod=
4A\	4e\	.	.
4D/	4f\	.	.
2A\	2e\	.	.
=56-	=56-	=56-	=56-
!LO:TX:t=P:problem:kreska pseudotaktowa	!	!	!
1D	1d	.	.
*	*	*custos:aa	*custos:ff
!	!	!LO:PB:g=original	!LO:PB:g=original
=57-	=57-	=57-	=57-
4D/	00r	4r	4r
2F\	.	2aa\	2ff\
4F\	.	8ff\L	8dd\L
!	!	!LO:TX:t=P:problem:kreska pseudotaktowa	!LO:TX:t=P:problem:kreska pseudotaktowa
.	.	8aa\J	8ff\J
=58-	=58-	=58-	=58-
2C/	.	4gg\	4ee\
.	.	8ee\L	8ccny\L
.	.	8gg\J	8ee\J
!LO:TX:t=P:problem:kreska pseudotaktowa	!	!	!
2D/	.	4ff\	4dd\
.	.	8dd\L	8b\L
!	!	!LO:TX:t=P:problem:kreska pseudotaktowa	!
.	.	8ff\J	8dd\J
=59-	=59-	=59-	=59-
4A\	.	4ee\	4cc#X\
4D/	.	4ff\	2dd\
2A\	.	2ee\	.
.	.	.	4cc#X\
=60-	=60-	=60-	=60-
!LO:TX:t=P:problem:kreska pseudotaktowa	!	!LO:TX:t=P:problem:kreska pseudotaktowa	!LO:TX:t=P:problem:kreska pseudotaktowa
1D	.	1dd	1dd
=61-	=61-	=61-	=61-
4D/	4r	4r	4r
2F\	2f\	2ff\	2aa\
4F\	4f\	8dd\L	8ff\L
.	.	8ff\J	8aa\J
=62-	=62-	=62-	=62-
2C/	2c\	4ee\	4gg\
.	.	8ccny\L	8ee\L
.	.	8ee\J	8gg\J
!LO:TX:t=P:problem:kreska pseudotaktowa	!	!	!
2D/	2d\	4dd\	4ff\
.	.	8b\L	8dd\L
!	!	!LO:TX:t=P:problem:kreska pseudotaktowa	!LO:TX:t=P:problem:kreska pseudotaktowa
.	.	8dd\J	8ff\J
=63-	=63-	=63-	=63-
4A\	4r	4cc#X\	4ee\
4D/	4D/	2dd\	4ff\
2A\	2A/	.	2ee\
!	!	!LO:TX:a:t=P:problem:# above	!
.	.	4cc#X\	.
=64-	=64-	=64-	=64-
!	!	!	!LO:TX:t=P:problem:kreska pseudotaktowa
!LO:TX:t=P:problem:kreska pseudotaktowa	!	!	!
1D	1D	4dd\	1dd
.	.	4d/	.
.	.	4d/	.
.	.	4d/	.
*	*	*custos:a	*custos:a
!	!	!LO:LB:g=original	!LO:LB:g=original
=65-	=65-	=65-	=65-
4D/	4r	1a	4r
4AA/	4A/	.	16a/LL
.	.	.	16b/
!	!	!	!LO:TX:t=P:problem: # below
.	.	.	16cc#X/
.	.	.	16dd/JJ
4AA/	4A/	.	8ee\L
!	!	!	!LO:TX:a:t=P:problem:# above
.	.	.	8cc#X\J
!	!	!	!LO:TX:t=P:problem:mixed beam
4AA/	4A/	.	8a/L
.	.	.	8ee\J
*custos:D	*	*	*
!LO:LB:g=original	!	!	!
=66-	=66-	=66-	=66-
!LO:TX:t=P:problem:kreska pseudotaktowa	!LO:TX:t=P:problem:kreska pseudotaktowa	!	!
1D	1d	4r	1dd
.	.	16d/LL	.
.	.	16e/	.
!	!	!LO:TX:a:t=P:problem:# above	!
.	.	16f#X/	.
.	.	16gny/JJ	.
!	!	!LO:TX:t=P:problem:mixed beam	!
.	.	8a/L	.
!	!	!LO:TX:a:t=P:problem:# above	!
!	!	!LO:SIC:s=8f#J	!
.	.	8f#X/	.
!	!	!LO:SIC:s=8dL	!
.	.	8d/	.
!	!	!LO:TX:t=P:problem:kreska pseudotaktowa	!
.	.	8dd\J	.
*	*custos:A	*	*
!	!LO:LB:g=original	!	!
=67-	=67-	=67-	=67-
1AA	4r	2a/	1r
.	16A\LL	.	.
.	16B\	.	.
!	!LO:SIC:v:s=16c#	!	!
.	16c\	.	.
.	16d\JJ	.	.
.	8e\L	2r	.
!	!LO:SIC:v:s=8c#J	!	!
.	8c\	.	.
!	!LO:SIC:s=8AL	!	!
.	8A\	.	.
.	8e\J	.	.
=68-	=68-	=68-	=68-
0D	1d	0r	4r
.	.	.	16d/LL
.	.	.	16e/
!	!	!	!LO:TX:a:t=P:problem:# above
.	.	.	16f#X/
.	.	.	16gny/JJ
!	!	!	!LO:TX:t=P:problem:mixed beam
.	.	.	8a/L
!	!	!	!LO:TX:a:t=P:problem:# above
!	!	!	!LO:SIC:s=8f#J
.	.	.	8f#X/
!	!	!	!LO:SIC:s=8dL
.	.	.	8d/
!	!	!	!LO:TX:t=P:problem:kreska pseudotaktowa
.	.	.	8dd\J
=69-	=69-	=69-	=69-
!LO:TX:t=P:problem:kreska pseudotaktowa	!	!	!
.	4r	.	1a
.	16D/LL	.	.
.	16E/	.	.
!	!LO:SIC:v:s=16F#	!	!
.	16F/	.	.
.	16Gny/JJ	.	.
!	!LO:TX:t=P:problem:mixed beam	!	!
.	8A/L	.	.
!	!LO:SIC:v:s=8F#J	!	!
.	8F/	.	.
!	!LO:SIC:s=8DL	!	!
.	8D/	.	.
!	!LO:TX:t=P:problem:kreska pseudotaktowa	!	!
.	8d\J	.	.
=70-	=70-	=70-	=70-
2D/	4A/	4r	1r
.	16d\LL	16fny/LL	.
.	16e\	16g/	.
.	16f\	16a/	.
.	16g\JJ	16b/JJ	.
2.AA/	2.a\	2.ccny\	.
=71-	=71-	=71-	=71-
.	.	.	4r
4GG/	2g\	4b/	4dd\
!LO:TX:t=P:problem:kreska pseudotaktowa	!	!	!
2D/	.	2a/	4dd\
!	!	!	!LO:TX:t=P:problem:kreska pseudotaktowa
.	4f#X\	.	4dd\
=72-	=72-	=72-	=72-
!	!LO:TX:t=P:problem:kreska pseudotaktowa	!LO:TX:t=P:problem:kreska pseudotaktowa	!
1GG	1g	1g	4b/
.	.	.	16g/LL
.	.	.	16a/
.	.	.	16b/
.	.	.	16ccny/JJ
.	.	.	8dd\L
.	.	.	8b\J
!	!	!	!LO:TX:t=P:problem:mixed beam
.	.	.	8g/L
.	.	.	8gg\J
*	*	*	*custos:dd
!	!	!	!LO:LB:g=original
=73-	=73-	=73-	=73-
!LO:TX:t=P:problem:kreska pseudotaktowa	!	!	!
0Gny	1r	4r	2dd\
.	.	16g/LL	.
.	.	16a/	.
.	.	16b/	.
.	.	16cc/JJ	.
.	.	8dd\L	2r
.	.	8b\J	.
!	!	!LO:TX:t=P:problem:mixed beam	!
.	.	8g/L	.
.	.	8gg\J	.
*	*custos:G	*	*
!	!LO:LB:g=original	!	!
=74-	=74-	=74-	=74-
.	4r	2dd\	1r
.	16G/LL	.	.
.	16A/	.	.
.	16B/	.	.
.	16c/JJ	.	.
!	!	!LO:TX:t=P:problem:kreska pseudotaktowa	!
.	8d\L	2r	.
.	8B\J	.	.
!	!LO:TX:t=P:problem:mixed beam	!	!
.	8G/L	.	.
!	!LO:TX:t=P:problem:kreska pseudotaktowa	!	!
.	8g\J	.	.
*	*	*custos;b	*
!	!	!LO:LB:g=original	!
=75-	=75-	=75-	=75-
2G\	4d\	4r	1r
.	16G/LL	16b\LL	.
.	16A/	16cc\	.
.	16B/	16dd\	.
.	16c/JJ	16ee\JJ	.
2.D/	2.d\	2.ff\	.
!	!	!	!LO:MO:mod=*null:null
*	*	*	*clefG1
=76-	=76-	=76-	=76-
.	.	.	4r
4C/	2c\	4ee\	4gg\
!LO:TX:t=P:problem:kreska pseudotaktowa	!	!	!
2G\	.	2dd\	4gg\
!	!	!	!LO:TX:t=P:problem:kreska pseudotaktowa
.	4B\	.	4gg\
=77-	=77-	=77-	=77-
!	!LO:TX:t=P:problem:kreska pseudotaktowa	!LO:TX:t=P:problem:kreska pseudotaktowa	!
0C	1c	1cc	4ee\
.	.	.	16cc/LL
.	.	.	16dd/
.	.	.	16ee/
.	.	.	16ff/JJ
.	.	.	8gg\L
.	.	.	8ee\J
!	!	!	!LO:TX:t=P:problem:mixed beam
.	.	.	8cc/L
!	!	!	!LO:TX:t=P:problem:kreska pseudotaktowa
.	.	.	8ccc\J
=78-	=78-	=78-	=78-
.	1r	4r	1gg
.	.	16c/LL	.
.	.	16d/	.
.	.	16e/	.
.	.	16f/JJ	.
!	!	!LO:TX:t=P:problem:mixed beam	!
.	.	8g/L	.
!	!	!LO:SIC:s=8eJ	!
.	.	8e/	.
!	!	!LO:SIC:s=8cL	!
.	.	8c/	.
.	.	8cc\J	.
!	!	!	!LO:MO:mod=*null:null
*	*	*	*clefG2
=79-	=79-	=79-	=79-
!LO:TX:t=P:problem:kreska pseudotaktowa	!	!	!
1C	4r	1g	1r
.	16C/LL	.	.
.	16D/	.	.
.	16E/	.	.
.	16F/JJ	.	.
.	8G/L	.	.
.	8E/J	.	.
!	!LO:TX:t=P:problem:mixed beam	!	!
.	8C/L	.	.
!	!LO:TX:t=P:problem:kreska pseudotaktowa	!	!
.	8c\J	.	.
=80-	=80-	=80-	=80-
2C/	4G/	0r	4r
.	16A\LL	.	16cc\LL
.	16B\	.	16dd\
.	16c\	.	16ee\
.	16d\JJ	.	16ff\JJ
*	*custos:e	*	*
!	!LO:LB:g=original	!	!
2.C/	2.e\	.	2.gg\
.	.	.	.
=81-	=81-	=81-	=81-
.	.	.	.
4FF/	2fny\	.	4aa\
!LO:TX:t=P:problem:kreska pseudotaktowa	!	!	!LO:TX:t=P:problem:kreska pseudotaktowa
2C/	.	.	2gg\
.	4e\	.	.
=82-	=82-	=82-	=82-
4F\	2f\	8r	8ff\L
.	.	8ff\L	8aa\
2D/	.	8ff\	8aa\
.	.	8ee\J	8gg\J
!	!LO:TX:t=P:problem:kreska pseudotaktowa	!	!
.	2r	16dd\LL	16ff\LL
.	.	16ee\	16gg\
.	.	16ff\	16aa\
!	!	!LO:SIC:s=16eeJJ	!
.	.	16ee\	16gg\JJ
*	*	*	*custos:ff
!	!	!LO:SIC:s=16ddLL	!LO:LB:g=original
4D/	.	16dd\	16ff\LL
.	.	16cc\	16ee\
.	.	16b\	16dd\
.	.	16a\JJ	16cc\JJ
*custos:G	*	*	*
!LO:LB:g=original	!	!	!
=83-	=83-	=83-	=83-
2G\	8r	2g/	2b/
.	8g\L	.	.
.	8g\	.	.
.	8f\J	.	.
!	!	!LO:TX:t=P:problem:kreska pseudotaktowa	!
1C	16e\LL	2r	2r
.	16f\	.	.
.	16g\	.	.
!	!LO:SIC:s=16fJJ	!	!
.	16f\	.	.
!	!LO:SIC:s=16eLL	!	!
.	16e\	.	.
.	16d\	.	.
.	16c\	.	.
!	!LO:TX:t=P:problem:kreska pseudotaktowa	!	!
.	16B\JJ	.	.
*	*	*custos:ee	*
!	!	!LO:LB:g=original	!
=84-	=84-	=84-	=84-
.	2c\	8r	8r
.	.	8ee\L	8gg\L
.	.	8ee\	8gg\
.	.	8dd\J	8ff\J
!LO:TX:t=P:problem:kreska pseudotaktowa	!	!	!
2C/	2r	16cc\LL	16ee\LL
.	.	16dd\	16ff\
.	.	16ee\	16gg\
!	!	!LO:SIC:s=16ddJJ	!
.	.	16dd\	16ff\JJ
!	!	!LO:SIC:s=16ccLL	!
.	.	16cc\	16ee\LL
.	.	16b\	16dd\
.	.	16a\	16cc\
!	!	!	!LO:TX:t=P:problem:kreska pseudotaktowa
.	.	16g\JJ	16b\JJ
=85-	=85-	=85-	=85-
1D	8r	2f/	2a/
.	8f\L	.	.
.	8f\	.	.
.	8e\J	.	.
!	!	!LO:TX:t=P:problem:kreska pseudotaktowa	!
.	16d\LL	2r	2r
.	16e\	.	.
.	16f\	.	.
!	!LO:SIC:s=16eJJ	!	!
.	16e\	.	.
!	!LO:SIC:s=16dLL	!	!
.	16d\	.	.
.	16c\	.	.
.	16B\	.	.
.	16A\JJ	.	.
=86-	=86-	=86-	=86-
!LO:TX:t=P:problem:kreska pseudotaktowa	!	!	!
1GG	2G/	8r	8r
.	.	8b/L	8dd\L
.	.	8b/	8dd\
.	.	8a/J	8cc\J
!	!LO:TX:t=P:problem:kreska pseudotaktowa	!	!
.	2r	16g/LL	16b\LL
.	.	16a/	16cc\
.	.	16b/	16dd\
!	!	!LO:SIC:s=16aJJ	!
.	.	16a/	16cc\JJ
!	!	!LO:SIC:s=16gLL	!
.	.	16g/	16b/LL
.	.	16f/	16a/
.	.	16e/	16g/
!	!	!	!LO:TX:t=P:problem:kreska pseudotaktowa
.	.	16d/JJ	16fny/JJ
*	*custos:c	*	*
!	!LO:LB:g=original	!	!
=87-	=87-	=87-	=87-
!	!	!	!LO:TX:t=P:problem:mixed beam
4C/	8r	2c/	8e/L
.	8c\L	.	8ee\
2AA/	8c\	.	8ee\
.	8B\J	.	8dd\J
.	16A\LL	2r	16cc\LL
.	16B\	.	16dd\
.	16c\	.	16ee\
.	16B\JJ	.	16dd\JJ
4AA/	16A/LL	.	16cc/LL
.	16G/	.	16b/
.	16F/	.	16a/
!	!	!	!LO:TX:t=P:problem:kreska pseudotaktowa
!	!LO:TX:t=P:problem:kreska pseudotaktowa	!	!
.	16E/JJ	.	16g/JJ
*	*	*	*custos:f
!	!	!	!LO:LB:g=original
=88-	=88-	=88-	=88-
!	!	!	!LO:TX:t=P:problem:mixed beam
4D/	4D/	8r	8f/L
.	.	8dd\L	8ff\
2BB-X/	2B-X\	8dd\	8ff\
!	!	!	!LO:TX:a:t=P:problem:♭ above
.	.	8cc\J	8ee-X\J
.	.	16b-X\LL	16dd\LL
!	!	!	!LO:TX:a:t=P:problem:♭ above
.	.	16cc\	16ee-X\
.	.	16dd\	16ff\
!	!	!	!LO:TX:a:t=P:problem:♭ above
.	.	16cc\JJ	16ee-X\JJ
!LO:TX:t=P:problem:kreska pseudotaktowa	!	!	!
4BB-/	4B-\	16b-X/LL	16dd\LL
.	.	16a/	16cc\
.	.	16g/	16b-X\
!	!	!	!LO:TX:t=P:problem:kreska pseudotaktowa
.	.	16f/JJ	16a\JJ
*	*	*custos:e	*
!	!	!LO:LB:g=original	!
=89-	=89-	=89-	=89-
!	!	!LO:TX:t=P:problem:mixed beam	!LO:TX:t=P:problem:mixed beam
2C/	2c\	8e/L	8g\L
.	.	8ee\	8gg\
.	.	8ee\	8gg\
.	.	8dd\J	8ff\J
!	!LO:TX:t=P:problem:kreska pseudotaktowa	!	!
2C/	2c\	16cc\LL	16eeny\LL
.	.	16dd\	16ff\
.	.	16ee\	16gg\
!	!	!LO:SIC:s=16ddJJ	!
.	.	16dd\	16ff\JJ
!	!	!LO:SIC:s=16ccLL	!
.	.	16cc\	16ee\LL
.	.	16bny\	16dd\
.	.	16a\	16cc\
!	!	!LO:TX:t=P:problem:kreska pseudotaktowa	!LO:TX:t=P:problem:kreska pseudotaktowa
.	.	16g\JJ	16bny\JJ
=90-	=90-	=90-	=90-
!	!	!LO:TX:t=P:problem:mixed beam	!LO:TX:t=P:problem:mixed beam
4F\	4f\	8f/L	8a/L
.	.	8ff\	8aa\
2D/	2d\	8ff\	8aa\
.	.	8ee\J	8gg\J
.	.	16dd\LL	16ff\LL
.	.	16ee\	16gg\
.	.	16ff\	16aa\
.	.	16ee\JJ	16gg\JJ
!LO:TX:t=P:problem:kreska pseudotaktowa	!	!	!
4D/	4d\	16dd\LL	16ff\LL
.	.	16cc\	16ee\
.	.	16b\	16dd\
!	!	!LO:TX:t=P:problem:kreska pseudotaktowa	!
.	.	16a\JJ	16cc\JJ
=91-	=91-	=91-	=91-
4E\	4e\	4g#X/	4b/
4AA/	4A/	2a/	4cc\
2E\	2e\	.	2b/
.	.	4g#X/	.
=92-	=92-	=92-	=92-
!LO:TX:t=P:problem:kreska pseudotaktowa	!LO:TX:t=P:problem:kreska pseudotaktowa	!LO:TX:t=P:problem:kreska pseudotaktowa	!
1AA	1A	1a	1a
*	*	*	*custos:a
!	!	!	!LO:LB:g=original
=93-	=93-	=93-	=93-
4r	4r	4r	4r
2AA/	2A/	2c/	2a/
4AA/	4A/	4c/	4a/
=94-	=94-	=94-	=94-
2.AA/	2A/	2c/	2a/
*	*	*custos:cc	*
!	!	!LO:LB:g=original	!
.	4r	4r	4r
!LO:TX:t=P:problem:kreska pseudotaktowa	!	!	!
4C/	4c\	4cc\	4ee\
=95-	=95-	=95-	=95-
2GG/	2G/	2b/	2dd\
2AA/	2A/	4.a/	4.cc\
.	.	16b/LL	16dd\LL
.	.	16cc/JJ	16ee\JJ
*custos:E	*	*	*
!LO:LB:g=original	!	!	!LO:TX:t=P:problem:kreska pseudotaktowa
=96-	=96-	=96-	=96-
!	!	!LO:TX:t=P:problem:kreska pseudotaktowa	!
1E	1E	1g#X	1b
*	*custos:c	*	*
!	!LO:LB:g=original	!	!
=97-	=97-	=97-	=97-
4E\	4r	4r	4r
2C/	2c\	2cc\	2ee\
4C/	4c\	4cc\	4ee\
=98-	=98-	=98-	=98-
2GG/	2G/	2b/	2dd\
!LO:TX:t=P:problem:kreska pseudotaktowa	!	!	!
2AA/	2A/	8r	8r
.	.	8cc/L	8ee\L
.	.	8b/	8dd\
!	!	!	!LO:TX:t=P:problem:kreska pseudotaktowa
.	.	8a/J	8cc\J
=99-	=99-	=99-	=99-
4E\	4r	4g#X/	4b/
4AA/	4A/	2a/	4cc\
2E\	2E/	.	2b/
!	!	!LO:TX:t=P:problem:kreska pseudotaktowa	!
.	.	4g#X/	.
=100-	=100-	=100-	=100-
!LO:TX:t=P:problem:kreska pseudotaktowa	!LO:TX:t=P:problem:kreska pseudotaktowa	!	!
1AA	1A	1a	1cc#X
=101-	=101-	=101-	=101-
4AA/	4r	00r	00r
2C/	2e\	.	.
4C/	8c\L	.	.
!	!LO:TX:t=P:problem:kreska pseudotaktowa	!	!
.	8e\J	.	.
=102-	=102-	=102-	=102-
2GG/	4d\	.	.
.	8Bny\L	.	.
.	8d\J	.	.
!LO:TX:t=P:problem:kreska pseudotaktowa	!	!	!
2AA/	4c\	.	.
.	8A\L	.	.
.	8c\J	.	.
=103-	=103-	=103-	=103-
4E\	4B\	.	.
4AA/	4c\	.	.
2E\	2B\	.	.
=104-	=104-	=104-	=104-
!LO:TX:t=P:problem:kreska pseudotaktowa	!	!	!
1AA	1A	.	.
=105-	=105-	=105-	=105-
4AA/	00r	4r	4r
2C/	.	2ee\	2ccny\
4C/	.	8cc\L	8a\L
.	.	8ee\J	8cc\J
*	*	*	*custos:b
!	!	!	!LO:LB:g=original
=106-	=106-	=106-	=106-
2GG/	.	4dd\	4b/
.	.	8b\L	8g/L
.	.	8dd\J	8b/J
!LO:TX:t=P:problem:kreska pseudotaktowa	!	!	!
2AA/	.	4cc\	4a/
.	.	8a/L	8f/L
.	.	8cc/J	8a/J
*	*	*custos:b	*
!	!	!LO:LB:g=original	!
=107-	=107-	=107-	=107-
4E\	.	4b/	4g#X/
4AA/	.	4cc\	2a/
2E\	.	2b/	.
.	.	.	4g#X/
=108-	=108-	=108-	=108-
!LO:TX:t=P:problem:kreska pseudotaktowa	!	!	!
!	!	!	!LO:TX:t=P:problem:kreska pseudotaktowa
1AA	.	1a	1a
*custos:AA	*	*	*
!LO:LB:g=original	!	!	!
=109-	=109-	=109-	=109-
4AA/	4r	4r	4r
2C/	2c\	2cc\	2ee\
4C/	4c\	8a/L	8cc\L
!	!	!LO:TX:t=P:problem:kreska pseudotaktowa	!
.	.	8cc/J	8ee\J
=110-	=110-	=110-	=110-
2GG/	2G/	4b/	4dd\
.	.	8gny/L	8b\L
.	.	8b/J	8dd\J
!LO:TX:t=P:problem:kreska pseudotaktowa	!	!	!
2AA/	2A/	4a/	4cc\
!	!	!LO:TX:a:t=P:problem:# above	!
.	.	8f#X/L	8a\L
!	!	!	!LO:TX:t=P:problem:kreska pseudotaktowa
.	.	8a/J	8cc\J
*	*custos:A	*	*
!	!LO:LB:g=original	!	!
=111-	=111-	=111-	=111-
4E\	4r	4g#X/	4b/
4AA/	4A/	2a/	4cc\
!	!LO:TX:t=P:problem:kreska pseudotaktowa	!	!
2E\	2e\	.	2b/
.	.	4g#X/	.
=112-	=112-	=112-	=112-
2AA/	2A/	1a	1a
1F	2.a\	.	.
=113-	=113-	=113-	=113-
!	!	!	!LO:TX:t=P:problem:kreska pseudotaktowa
.	.	0r	1r
.	8f\L	.	.
.	8a\J	.	.
!LO:TX:t=P:problem:kreska pseudotaktowa	!	!	!
2C/	4g\	.	.
.	8e\L	.	.
!	!LO:TX:t=P:problem:kreska pseudotaktowa	!	!
.	8g\J	.	.
=114-	=114-	=114-	=114-
2D/	4f\	.	4aa\
.	8d\L	.	8ff\L
.	8f\J	.	8aa\J
2E\	4e\	.	4gg\
.	8c\L	.	8ee\L
.	8e\J	.	8gg\J
*	*	*	*custos:ff
!	!	!	!LO:LB:g=original
=115-	=115-	=115-	=115-
2D/	2d\	4aa\	4ff\
.	.	8ff\L	8dd\L
.	.	8aa\J	8ff\J
!LO:TX:t=P:problem:kreska pseudotaktowa	!LO:TX:t=P:problem:kreska pseudotaktowa	!	!
2E\	2e\	4gg\	4ee\
.	.	8ee\L	8cc\L
!	!	!	!LO:TX:t=P:problem:kreska pseudotaktowa
.	.	8gg\J	8ee\J
=116-	=116-	=116-	=116-
1.D	1.d	4ff\	4aa\
.	.	8dd\L	8ff\L
.	.	8ff\J	8aa\J
.	.	4ee\	4gg\
.	.	8cc\L	8ee\L
!	!	!	!LO:TX:t=P:problem:kreska pseudotaktowa
.	.	8ee\J	8gg\J
*	*	*custos:dd	*
!	!	!LO:LB:g=original	!
=117-	=117-	=117-	=117-
.	.	4dd\	4ff\
.	.	8b\L	8dd\L
.	.	8dd\J	8ff\J
2AA/	2A/	4cc#X\	4ee\
!	!	!	!LO:SIC:v:s=8cc#L
.	.	8a/L	8cc\L
!	!	!LO:TX:t=P:problem: # below	!LO:TX:t=P:problem:kreska pseudotaktowa
.	.	8cc#X/J	8ee\J
=118-	=118-	=118-	=118-
1D	1d	1.dd	4.ff\
.	.	.	8ee\
.	.	.	8ff\L
.	.	.	8ee\
.	.	.	8ff\
.	.	.	8gg\J
=119-	=119-	=119-	=119-
!LO:SIC:s=[1AA	!LO:SIC:s=[1A	!	!LO:SIC:s=[1ee
[1AAl;;	[1Al;;	.	[1eel;;
.	.	4cc#X\	.
.	.	4b/	.
=120-	=120-	=120-	=120-
!LO:SIC:s=1AA];	!LO:SIC:s=1A];	!LO:SIC:s=1cc#;	!LO:SIC:s=1ee];
1AA]	1A]	1cc#Xl;;	1ee]
==	==	==	==
*-	*-	*-	*-
!!!system-decoration: s1,s2,s3,s4
!!!RDF**kern: l = terminal long
!!!ENC: Andrzej Gręziak
!!!END: 2022-11-05
!!!ENC: Jan Barakat
!!!END: 2022-11-16
!!!EST: revision finished 2022-11-29
!!!ENC-modern: Andrzej Borzym
!!!END-modern: 2022-12-06
!!!YEC: Copyright 2022 Narodowy Instytut Fryderyka Chopina (https://polishscores.org)
!!!YEM: License CC-BY-4.0 (https://creativecommons.org/licenses/by/4.0)
